assets/img/favicon.svg

<svg width="96" height="96" viewBox="0 0 96 96" fill="none" xmlns="http://www.w3.org/2000/svg">
<path d="M81.592 17.544C78.308 15.752 73.232 18.736 70.244 24.112L64.572 33.668C62.48 37.548 62.78 42.328 65.468 46.208L65.768 46.508C67.9881 49.4343 70.3803 52.2259 72.932 54.868C73.532 55.468 74.128 56.36 74.424 57.556C75.32 60.84 73.528 64.424 69.944 65.316C66.664 66.216 63.08 64.424 62.184 60.84C61.884 59.944 61.884 59.048 61.884 58.452C62.184 56.96 61.588 54.868 59.496 52.48C57.408 50.388 53.524 54.568 52.032 58.748V59.048C50.836 63.228 49.94 67.112 50.24 67.408C50.24 67.708 50.54 67.708 50.54 68.008C52.332 71.588 51.136 75.768 47.552 77.56C43.968 79.352 39.792 78.16 37.996 74.576C36.204 70.992 37.396 66.812 40.984 65.02C41.28 65.02 41.28 64.72 41.58 64.72C41.88 64.72 42.476 62.928 43.372 60.54C43.972 58.452 44.268 57.556 44.568 56.66C44.864 55.464 45.464 52.48 45.164 51.284C44.864 49.792 43.372 49.792 41.88 50.684C40.984 51.284 39.192 52.776 38.596 53.376C37.153 54.5807 36.0245 56.1182 35.308 57.856C34.912 58.6191 34.4097 59.3221 33.816 59.944C32.4916 60.9699 30.8243 61.4488 29.1574 61.2821C27.4905 61.1154 25.951 60.3158 24.856 59.048C23.8306 57.7232 23.3523 56.0555 23.5198 54.3886C23.6872 52.7217 24.4876 51.1824 25.756 50.088C26.652 49.492 27.548 48.896 28.44 48.896C29.936 48.596 35.308 45.312 38.596 42.924C39.192 42.624 40.088 41.728 40.388 41.432C41.28 40.236 40.388 39.34 39.492 39.34C36.804 39.64 33.816 39.94 33.22 40.832C32.92 41.132 32.62 41.728 32.024 42.028C29.636 43.82 26.052 43.224 24.264 40.832C22.468 38.444 23.064 34.86 25.456 33.072C26.352 32.172 27.844 31.872 28.74 31.872C30.832 31.872 36.204 33.072 40.384 32.172L41.58 31.876C46.06 30.98 51.436 27.096 53.524 23.216C53.524 23.216 55.616 19.632 58.004 15.152C60.692 10.672 60.392 5.6 57.704 4.104L52.628 1.12C49.94 -0.372001 46.06 -0.372001 43.372 1.12L8.732 20.828C6.052 22.32 3.96 25.904 3.96 28.888V67.108C3.96 70.096 6.052 73.68 8.74 75.172L43.376 94.88C46.064 96.372 50.244 96.372 52.632 94.88L87.272 75.172C89.956 73.68 92.048 70.096 92.048 67.112V28.888C92.048 25.904 89.956 22.32 87.272 20.828C87.272 20.828 84.876 19.336 81.592 17.544Z" fill="#00A99D"/>
</svg>

<svg width="96" height="96" fill="none" xmlns="http://www.w3.org/2000/svg"><path d="M81.592 17.544c-3.284-1.792-8.36 1.192-11.348 6.568l-5.672 9.556c-2.092 3.88-1.792 8.66.896 12.54l.3.3a92.598 92.598 0 0 0 7.164 8.36c.6.6 1.196 1.492 1.492 2.688.896 3.284-.896 6.868-4.48 7.76-3.28.9-6.864-.892-7.76-4.476-.3-.896-.3-1.792-.3-2.388.3-1.492-.296-3.584-2.388-5.972-2.088-2.092-5.972 2.088-7.464 6.268v.3c-1.196 4.18-2.092 8.064-1.792 8.36 0 .3.3.3.3.6 1.792 3.58.596 7.76-2.988 9.552-3.584 1.792-7.76.6-9.556-2.984-1.792-3.584-.6-7.764 2.988-9.556.296 0 .296-.3.596-.3s.896-1.792 1.792-4.18c.6-2.088.896-2.984 1.196-3.88.296-1.196.896-4.18.596-5.376-.3-1.492-1.792-1.492-3.284-.6-.896.6-2.688 2.092-3.284 2.692a11.592 11.592 0 0 0-3.288 4.48 9.082 9.082 0 0 1-1.492 2.088 6.544 6.544 0 0 1-8.96-.896 6.544 6.544 0 0 1 .9-8.96c.896-.596 1.792-1.192 2.684-1.192 1.496-.3 6.868-3.584 10.156-5.972.596-.3 1.492-1.196 1.792-1.492.892-1.196 0-2.092-.896-2.092-2.688.3-5.676.6-6.272 1.492-.3.3-.6.896-1.196 1.196-2.388 1.792-5.972 1.196-7.76-1.196-1.796-2.388-1.2-5.972 1.192-7.76.896-.9 2.388-1.2 3.284-1.2 2.092 0 7.464 1.2 11.644.3l1.196-.296c4.48-.896 9.856-4.78 11.944-8.66 0 0 2.092-3.584 4.48-8.064 2.688-4.48 2.388-9.552-.3-11.048L52.628 1.12c-2.688-1.492-6.568-1.492-9.256 0L8.732 20.828c-2.68 1.492-4.772 5.076-4.772 8.06v38.22c0 2.988 2.092 6.572 4.78 8.064L43.376 94.88c2.688 1.492 6.868 1.492 9.256 0l34.64-19.708c2.684-1.492 4.776-5.076 4.776-8.06V28.888c0-2.984-2.092-6.568-4.776-8.06 0 0-2.396-1.492-5.68-3.284Z" fill="#00A99D"/></svg>
